site/static/docs/images/icons/right-arrow.svg

<svg fill="none" height="11" viewBox="0 0 11 11" width="11" xmlns="http://www.w3.org/2000/svg"><path clip-rule="evenodd" d="m5.21967.969668c.29289-.292891.76777-.292891 1.06066 0l4.24997 4.250002c.2929.29289.2929.76777 0 1.06066l-4.24997 4.24997c-.29289.2929-.76777.2929-1.06066 0s-.29289-.7677 0-1.0606l2.96963-2.9697h-7.4393c-.41421 0-.75-.33579-.75-.75s.33579-.75.75-.75h7.4393l-2.96963-2.96967c-.29289-.29289-.29289-.76777 0-1.060662z" fill="#0075ff" fill-rule="evenodd"/></svg>

<svg width="11" height="11" viewBox="0 0 11 11" fill="none" xmlns="http://www.w3.org/2000/svg">
<path fill-rule="evenodd" clip-rule="evenodd" d="M5.21967 0.969668C5.51256 0.676777 5.98744 0.676777 6.28033 0.969668L10.5303 5.21967C10.8232 5.51256 10.8232 5.98744 10.5303 6.28033L6.28033 10.5303C5.98744 10.8232 5.51256 10.8232 5.21967 10.5303C4.92678 10.2374 4.92678 9.7626 5.21967 9.4697L8.1893 6.5H0.75C0.33579 6.5 0 6.16421 0 5.75C0 5.33579 0.33579 5 0.75 5H8.1893L5.21967 2.03033C4.92678 1.73744 4.92678 1.26256 5.21967 0.969668Z" fill="#0075ff"/>
</svg>
